X:132
T:Waltz, A. CJF.132
R:Waltz
S:C.J.Fox MS, 1829/33, Beverley,E.Yorks.
N:The note marked “a” here is also so marked in the MS,
N:where the stave shows a c2, – PJH.
B:Kidson Coll.Mitchell Lib.M1805
O:England
A:East Yorkshire
Z:vmp.P J Headford 2000 & 2008
M:3/8
L:1/16
Q:1/8=120
K:D
(fg)|(af) d2(db)|(af) d2(af)|(ge)cAag|\
g2f2 (fg)|af d2db|afd2 af|gecAge|d2d2:|!
|:cd|ecAceg|fdAdfa|b2b2b2|^gagacd|\
ecAceg|fdAdfa|b2bg ec|d4:|!
|:A|d2f2a2|(ab).a.gf2|e2d2e2|f2d2A2|\
d2f2a2|abagf2|fed2e2|d4:|!
|:A2|cAEAcA|dAFAdA|e2edcB|” a “A2cgfe|\
d2f2a2|(ab).a.gf2|!
e2d2e2|f2d2A2|\
d2f2a2|(ab).a.gf2|fed2e2|d4:|

